X:1
T:Inverary
T:Inverary
T:Carl Volti
C:Carl Volti
L:1/8
Q:1/8=128
M:4/4
K:D
V:1 treble 
V:1
|: A<d d>e f>e d>B | A<d d>f e>d e<f | A<d d>e f>e d>A | B<d A>G F<D D>f | A<d d>e f>e d>B | %5
 A<d d>f e>d e<f | A<d d>e f>e d>A | B<d A>G F<D D2 | a>f d>A B<d A<F | a>f d>A B<e e2 | %10
 a>f d>A B<d A<F | B<d A>G F<D D>f | a>f d>A B<d A<F | a>f d>A B<e e2 | a>f d>A B<d A<F | %15
 B<d A>G F<D D2 :| %16

